!!!OTL: Das Dollerlied
!!!ARE: Europa, Mitteleuropa, Deutschland
!!!SCT: A0374A
!!!YEM: Copyright 1995, estate of Helmut Schaffrath.
**kern
*ICvox
*Ivox
!! Mixed meters:  4/2; 6/2
*M6/2
*k[f#c#]
*D:
{1dd
=1
2dd
2ccn
2b
2a
=2
1g
1a}
=3
{1b
=4
1ccn
2ccn
1dd
2b
=5
*M4/2
1a}
{1dd
=6
2dd
2ccn
2b
2a
=7
1g
1a}
=8
{1b
=9
*M6/2
1ccn
2ccn
1dd
2b
=10
*M4/2
1a}
{1a
=11
2a
2g
2a
2b
=12
1ccn
1ccn}
=13
{1a
=14
*M6/2
1a
2a
1a
2g
=15
*M4/2
1fn}
{1ccn
=16
2ccn
2ccn
2ccn
2a
=17
1ccn
1a}
=18
{1a
=19
2ccn
2ccn
2dd
2b
=20
1a
1a}
=21
{1a
=22
*M6/2
1a
2fn
1g
2e
=23
1d}
==
!!!AGN: Romanze, Ballade, Lied, Personenlied
!! Melodie 1611 im Goerlitzer Gsgb. S. 552.
!!!ONB: ESAC (Essen Associative Code) Database: ALTDEU
!!!AMT: irregular
!!!AIN: vox
!!!EED: Helmut Schaffrath
!!!EEV: 1.0
*-
